public/svg/Duo_waving.svg

<?xml version="1.0" encoding="UTF-8" standalone="no"?>
<svg
        viewBox="0 0 22201 34225"
        fill="none"
        version="1.1"
        id="svg26"
        width="22201"
        height="34225" xmlns="http://www.w3.org/2000/svg">
    <g
            clip-path="url(#clip0)"
            id="g26">
        <path
                fill-rule="evenodd"
                clip-rule="evenodd"
                d="m 90.9582,168.134 c 0,-3.893 -3.1969,-7.196 -7.2227,-7.196 H 72.2504 c -3.9074,0 -7.2227,3.185 -7.2227,7.196 0,3.892 3.1969,7.195 7.2227,7.195 h 11.4851 c 4.0258,0 7.2227,-3.185 7.2227,-7.195 z"
                fill="#f49000"
                id="path2"/>
        <path
                fill-rule="evenodd"
                clip-rule="evenodd"
                d="m 129.795,171.319 c 1.776,-3.539 0.355,-7.786 -3.079,-9.555 l -6.986,-3.539 c -3.552,-1.77 -7.814,-0.354 -9.59,3.067 -1.777,3.539 -0.356,7.785 3.078,9.555 l 6.986,3.539 c 3.552,1.887 7.815,0.472 9.591,-3.067 z"
                fill="#f49000"
                id="path3"/>
        <path
                fill-rule="evenodd"
                clip-rule="evenodd"
                d="m 134.412,168.252 c 0,-3.893 -3.197,-7.078 -7.104,-7.078 h -2.25 c -3.907,0 -7.104,3.185 -7.104,7.078 0,3.892 3.197,7.077 7.104,7.077 h 2.25 c 3.907,0 7.104,-3.185 7.104,-7.077 z"
                fill="#f49000"
                id="path4"/>
        <path
                d="M 75.8023,90.3967 119.493,4.99218 c 2.369,-4.600514 8.526,-5.54421 12.196,-1.88739 17.524,17.45841 21.905,44.58961 10.42,67.12041 -11.486,22.5307 -36.232,34.9168 -60.7417,31.0238 -5.0913,-0.826 -7.933,-6.2518 -5.565,-10.8523 z"
                fill="#58cc02"
                id="path5"/>
        <path
                d="M 7.60174,153.27 26.5464,64.563 c 1.0656,-4.7185 6.3938,-7.0778 10.6563,-4.7185 20.3655,11.6782 31.0219,35.3886 26.0489,58.7455 -4.973,23.356 -24.628,40.932 -47.9536,43.292 -4.8546,0.471 -8.7619,-3.775 -7.69626,-8.612 z"
                fill="#58cc02"
                id="path6"/>
        <path
                fill-rule="evenodd"
                clip-rule="evenodd"
                d="M 71.0663,19.1479 C 60.7651,30.9441 53.1873,38.0218 48.3327,40.381 43.5965,42.7403 33.4138,44.2738 18.0213,44.9816 7.83854,45.4534 0.0238728,54.1826 0.497489,64.4453 0.615893,66.9225 1.20791,69.3997 2.39195,71.641 l 25.10165,51.195 c 13.3797,27.368 46.5328,38.692 74.1214,25.362 27.469,-13.329 38.836,-46.241 25.456,-73.49 V 74.59 L 101.733,23.1586 C 97.2336,13.9575 86.1036,10.1828 76.8681,14.6653 c -2.1313,1.0617 -4.1442,2.5952 -5.8018,4.4826 z"
                fill="#58cc02"
                id="path7"/>
        <path
                d="m 102.799,106.204 c -0.119,-0.708 -0.829,-1.062 -1.54,-0.826 l -12.4322,6.016 c -0.7104,0.354 -0.8288,1.18 -0.3552,1.651 2.4865,2.478 6.2754,3.068 9.5908,1.534 3.3156,-1.534 5.2096,-4.954 4.7366,-8.375 z m -23.2077,10.026 -12.4324,6.017 c -0.7104,0.353 -0.8288,1.179 -0.3552,1.651 2.4865,2.477 6.2754,3.067 9.5907,1.534 3.3153,-1.652 5.2098,-5.073 4.7362,-8.494 -0.1184,-0.59 -0.9472,-0.943 -1.5393,-0.708 z m 16.103,5.191 -12.4324,6.016 c -0.7105,0.354 -0.8289,1.179 -0.3553,1.651 2.4865,2.478 6.2754,3.067 9.5908,1.534 3.3153,-1.652 5.2097,-5.073 4.7361,-8.493 -0.1184,-0.59 -0.9472,-1.062 -1.5392,-0.708 z"
                fill="#89e219"
                id="path8"/>
        <path
                d="m 69.5269,30.7079 -6.9858,23.4745 c -0.3552,1.2975 0.592,2.4772 1.8944,2.4772 6.2755,-0.236 11.722,-4.4826 13.4981,-10.6166 1.7761,-6.134 -0.592,-12.7399 -5.8018,-16.1608 -1.0656,-0.7078 -2.2497,-0.3539 -2.6049,0.8257 z"
                fill="#89e219"
                id="path9"/>
        <path
                fill-rule="evenodd"
                clip-rule="evenodd"
                d="m 63.9621,49.3462 c -2.2497,7.9034 -11.3668,12.386 -18.9446,9.201 6.2754,12.8579 15.6293,31.8498 15.6293,31.8498 0,-0.118 6.2754,-3.185 19.063,-9.2011 C 75.0921,71.759 69.7639,61.1424 63.9621,49.3462 Z"
                fill="#89e219"
                id="path10"/>
        <path
                d="m 78.7625,30.944 -6.749,23.2385 c -0.3552,1.2976 0.592,2.4772 1.8945,2.4772 6.2754,-0.2359 11.722,-4.4826 13.498,-10.6166 1.7761,-6.134 -0.592,-12.6219 -5.8018,-16.1608 -1.0656,-0.8257 -2.4865,-0.2359 -2.8417,1.0617 z"
                fill="#89e219"
                id="path11"/>
        <path
                d="m 27.4936,51.4695 22.7335,9.319 c 1.1841,0.4719 1.5393,2.0054 0.7105,3.0671 -4.1442,4.7184 -10.8932,6.2519 -16.8134,3.7747 -5.9202,-2.4772 -9.4723,-8.4932 -8.8803,-14.6273 0,-1.4155 1.0656,-2.0053 2.2497,-1.5335 z"
                fill="#89e219"
                id="path12"/>
        <path
                d="m 22.047,58.3111 22.3784,9.437 c 1.184,0.4718 1.5392,2.0053 0.7104,3.067 -4.1441,4.7185 -10.8932,6.252 -16.8134,3.7748 -5.9202,-2.4772 -9.4723,-8.4933 -8.8803,-14.6273 0,-1.4156 1.4209,-2.1233 2.6049,-1.6515 z"
                fill="#89e219"
                id="path13"/>
        <path
                fill-rule="evenodd"
                clip-rule="evenodd"
                d="M 75.9207,36.7243 74.3815,37.432 C 64.0803,42.3864 59.8178,54.6545 64.9092,64.9172 l 6.6306,13.4476 c 4.973,10.1448 17.287,14.3914 27.5881,9.437 l 1.5391,-0.7078 c 10.301,-4.9544 14.564,-17.2224 9.473,-27.4851 L 103.509,46.1612 C 98.5359,36.0165 86.2219,31.7699 75.9207,36.7243 Z"
                fill="#89e219"
                id="path14"/>
        <path
                fill-rule="evenodd"
                clip-rule="evenodd"
                d="m 27.7303,59.6085 -1.5392,0.7078 C 15.8899,65.2707 11.6274,77.5388 16.7187,87.8015 l 6.6307,13.4475 c 4.9729,10.145 17.2869,14.392 27.5881,9.437 l 1.4208,-0.708 C 62.5411,105.024 66.8036,92.7559 61.9491,82.6111 L 55.4368,69.0455 C 50.4639,58.9008 38.1499,54.6541 27.7303,59.6085 c 0.1184,0 0,0 0,0 z"
                fill="#89e219"
                id="path15"/>
        <path
                fill-rule="evenodd"
                clip-rule="evenodd"
                d="m 31.4009,67.1583 c -7.5778,3.6568 -10.6563,12.7399 -6.9858,20.1715 l 4.0257,8.1394 c 3.6705,7.5498 12.7876,10.6168 20.3655,6.9598 7.5779,-3.6569 10.6564,-12.74 6.9858,-20.1716 L 51.7664,74.118 C 47.9775,66.6864 38.8604,63.5015 31.4009,67.1583 Z"
                fill="#ffffff"
                id="path16"/>
        <path
                fill-rule="evenodd"
                clip-rule="evenodd"
                d="m 37.4395,73.6463 c -3.5521,1.7694 -4.9729,6.0161 -3.3153,9.5549 l 3.4338,6.9598 c 1.776,3.5388 6.0386,4.9544 9.5907,3.3029 3.5521,-1.7694 4.9729,-6.016 3.3153,-9.5549 l -3.4337,-6.9598 c -1.6577,-3.6568 -5.9202,-5.0723 -9.5908,-3.3029 z"
                fill="#122431"
                id="path17"/>
        <path
                d="m 34.2425,82.9654 c 2.4849,0 4.4994,-2.007 4.4994,-4.4826 0,-2.4756 -2.0145,-4.4826 -4.4994,-4.4826 -2.4849,0 -4.4993,2.007 -4.4993,4.4826 0,2.4756 2.0144,4.4826 4.4993,4.4826 z"
                fill="#ffffff"
                id="path18"/>
        <path
                fill-rule="evenodd"
                clip-rule="evenodd"
                d="m 79.9464,43.4478 c -7.5778,3.6568 -10.6563,12.7399 -6.9858,20.1715 l 4.0257,8.1393 c 3.6706,7.5496 12.7877,10.6166 20.3655,6.9598 7.5782,-3.6568 10.6562,-12.7399 6.9862,-20.1715 l -4.026,-8.1394 C 96.6414,42.8579 87.5243,39.7909 79.9464,43.4478 Z"
                fill="#ffffff"
                id="path19"/>
        <path
                fill-rule="evenodd"
                clip-rule="evenodd"
                d="m 81.7225,52.4129 c -3.5521,1.7695 -4.973,6.0161 -3.3153,9.5549 l 3.4337,6.9598 c 1.7761,3.5389 6.0386,4.9544 9.5907,3.3029 3.5522,-1.7694 4.973,-6.016 3.3153,-9.5549 L 91.3132,55.7159 C 89.6556,52.177 85.393,50.7615 81.7225,52.4129 Z"
                fill="#122431"
                id="path20"/>
        <path
                d="m 78.2888,62.2039 c 2.4849,0 4.4993,-2.0069 4.4993,-4.4826 0,-2.4756 -2.0144,-4.4825 -4.4993,-4.4825 -2.4849,0 -4.4994,2.0069 -4.4994,4.4825 0,2.4757 2.0145,4.4826 4.4994,4.4826 z"
                fill="#ffffff"
                id="path21"/>
        <path
                d="M 29.9801,103.727 23.4679,90.5149 C 37.558,87.8017 49.28,88.7454 62.5412,92.9921 l -3.6705,8.8469 c -1.184,2.949 -4.381,4.483 -7.4595,3.657 -6.157,-1.769 -12.1956,-1.887 -18.471,-0.354 -1.0656,0.354 -2.3681,-0.354 -2.9601,-1.415 z"
                fill="#89e219"
                id="path22"/>
        <path
                d="M 109.784,67.8662 104.93,53.5928 C 92.9709,61.6142 85.2747,70.4613 78.9993,82.8474 l 12.0772,5.0723 c 1.3024,0.5898 2.8417,0 3.4337,-1.2976 3.1969,-6.8418 7.9328,-12.1501 14.3268,-16.0428 0.829,-0.4718 1.303,-1.6515 0.947,-2.7131 z"
                fill="#89e219"
                id="path23"/>
        <path
                fill-rule="evenodd"
                clip-rule="evenodd"
                d="m 66.567,78.2467 c -3.9073,1.8874 -5.4466,6.488 -3.5521,10.3807 l 0.9472,1.8874 c 1.8945,3.8927 6.6307,5.4262 10.4196,3.5388 3.9073,-1.8873 5.4466,-6.4879 3.5521,-10.3806 L 76.9866,81.7856 C 75.2105,77.8929 70.4743,76.3593 66.567,78.2467 Z"
                fill="#f49000"
                id="path24"/>
        <path
                d="m 79.9466,81.3138 c -2.9601,-4.0107 -8.7619,-5.5442 -13.8533,-2.9491 -4.6178,2.2413 -6.9858,7.6676 -5.565,12.504 l 0.2368,0.5898 10.538,-3.067 8.9987,-6.3699 z"
                fill="#ffc200"
                id="path25"/>
        <path
                d="m 66.3302,84.3806 c -0.3552,0 -0.8288,-0.118 -1.0656,-0.4719 -0.592,-0.5898 -0.592,-1.5335 0,-2.1233 1.4208,-1.4155 3.1969,-2.3592 5.2097,-2.5952 0.8289,-0.1179 1.6577,0.4719 1.6577,1.4156 0.1184,0.8257 -0.4736,1.6515 -1.4208,1.6515 -1.3025,0.1179 -2.3681,0.7077 -3.3154,1.6514 -0.3552,0.3539 -0.7104,0.4719 -1.0656,0.4719 z"
                fill="#ffde00"
                id="path26"/>
    </g>
    <defs
            id="defs26">
        <clipPath
                id="clip0">
            <rect
                    width="148.005"
                    height="183.19501"
                    fill="#ffffff"
                    transform="translate(0.497559,0.863525)"
                    id="rect26"
                    x="0"
                    y="0"/>
        </clipPath>
    </defs>
</svg>

<svg viewBox="0 0 149 185" fill="none" xmlns="http://www.w3.org/2000/svg"><g clip-path="url(#clip0)"><path opacity="0.3" fill-rule="evenodd" clip-rule="evenodd" d="M142.227 175.329H45.3725C43.0044 175.329 40.9916 177.217 40.9916 179.694C40.9916 182.053 42.886 184.059 45.3725 184.059H142.227C144.595 184.059 146.608 182.171 146.608 179.694C146.608 177.217 144.595 175.329 142.227 175.329Z" fill="#AFAFAF"/><path fill-rule="evenodd" clip-rule="evenodd" d="M90.9582 168.134C90.9582 164.241 87.7613 160.938 83.7355 160.938H72.2504C68.343 160.938 65.0277 164.123 65.0277 168.134C65.0277 172.026 68.2246 175.329 72.2504 175.329H83.7355C87.7613 175.329 90.9582 172.144 90.9582 168.134Z" fill="#F49000"/><path fill-rule="evenodd" clip-rule="evenodd" d="M129.795 171.319C131.571 167.78 130.15 163.533 126.716 161.764L119.73 158.225C116.178 156.455 111.916 157.871 110.14 161.292C108.363 164.831 109.784 169.077 113.218 170.847L120.204 174.386C123.756 176.273 128.019 174.858 129.795 171.319Z" fill="#F49000"/><path fill-rule="evenodd" clip-rule="evenodd" d="M134.412 168.252C134.412 164.359 131.215 161.174 127.308 161.174H125.058C121.151 161.174 117.954 164.359 117.954 168.252C117.954 172.144 121.151 175.329 125.058 175.329H127.308C131.215 175.329 134.412 172.144 134.412 168.252Z" fill="#F49000"/><path d="M75.8023 90.3967L119.493 4.99218C121.862 0.391666 128.019 -0.55203 131.689 3.10479C149.213 20.5632 153.594 47.6944 142.109 70.2252C130.623 92.7559 105.877 105.142 81.3673 101.249C76.276 100.423 73.4343 94.9972 75.8023 90.3967Z" fill="#58CC02"/><path d="M7.60174 153.27L26.5464 64.563C27.612 59.8445 32.9402 57.4852 37.2027 59.8445C57.5682 71.5227 68.2246 95.2331 63.2516 118.59C58.2786 141.946 38.6236 159.522 15.298 161.882C10.4434 162.353 6.5361 158.107 7.60174 153.27Z" fill="#58CC02"/><path fill-rule="evenodd" clip-rule="evenodd" d="M71.0663 19.1479C60.7651 30.9441 53.1873 38.0218 48.3327 40.381C43.5965 42.7403 33.4138 44.2738 18.0213 44.9816C7.83854 45.4534 0.0238728 54.1826 0.497489 64.4453C0.615893 66.9225 1.20791 69.3997 2.39195 71.641L27.4936 122.836C40.8733 150.204 74.0264 161.528 101.615 148.198C129.084 134.869 140.451 101.957 127.071 74.708V74.59L101.733 23.1586C97.2336 13.9575 86.1036 10.1828 76.8681 14.6653C74.7368 15.727 72.7239 17.2605 71.0663 19.1479Z" fill="#58CC02"/><path d="M102.799 106.204C102.68 105.496 101.97 105.142 101.259 105.378L88.8268 111.394C88.1164 111.748 87.998 112.574 88.4716 113.045C90.9581 115.523 94.747 116.113 98.0624 114.579C101.378 113.045 103.272 109.625 102.799 106.204ZM79.5913 116.23L67.1589 122.247C66.4485 122.6 66.3301 123.426 66.8037 123.898C69.2902 126.375 73.0791 126.965 76.3944 125.432C79.7097 123.78 81.6042 120.359 81.1306 116.938C81.0122 116.348 80.1834 115.995 79.5913 116.23ZM95.6943 121.421L83.2619 127.437C82.5514 127.791 82.433 128.616 82.9066 129.088C85.3931 131.566 89.182 132.155 92.4974 130.622C95.8127 128.97 97.7071 125.549 97.2335 122.129C97.1151 121.539 96.2863 121.067 95.6943 121.421Z" fill="#89E219"/><path d="M69.5269 30.7079L62.5411 54.1824C62.1859 55.4799 63.1331 56.6596 64.4355 56.6596C70.711 56.4236 76.1575 52.177 77.9336 46.043C79.7097 39.909 77.3416 33.3031 72.1318 29.8822C71.0662 29.1744 69.8821 29.5283 69.5269 30.7079Z" fill="#89E219"/><path fill-rule="evenodd" clip-rule="evenodd" d="M63.9621 49.3462C61.7124 57.2496 52.5953 61.7322 45.0175 58.5472C51.2929 71.4051 60.6468 90.397 60.6468 90.397C60.6468 90.279 66.9222 87.212 79.7098 81.1959C75.0921 71.759 69.7639 61.1424 63.9621 49.3462Z" fill="#89E219"/><path d="M78.7625 30.944L72.0135 54.1825C71.6583 55.4801 72.6055 56.6597 73.908 56.6597C80.1834 56.4238 85.63 52.1771 87.406 46.0431C89.1821 39.9091 86.814 33.4212 81.6042 29.8823C80.5386 29.0566 79.1177 29.6464 78.7625 30.944Z" fill="#89E219"/><path d="M27.4936 51.4695L50.2271 60.7885C51.4112 61.2604 51.7664 62.7939 50.9376 63.8556C46.7934 68.574 40.0444 70.1075 34.1242 67.6303C28.204 65.1531 24.6519 59.1371 25.2439 53.003C25.2439 51.5875 26.3095 50.9977 27.4936 51.4695Z" fill="#89E219"/><path d="M22.047 58.3111L44.4254 67.7481C45.6094 68.2199 45.9646 69.7534 45.1358 70.8151C40.9917 75.5336 34.2426 77.0671 28.3224 74.5899C22.4022 72.1127 18.8501 66.0966 19.4421 59.9626C19.4421 58.547 20.863 57.8393 22.047 58.3111Z" fill="#89E219"/><path fill-rule="evenodd" clip-rule="evenodd" d="M75.9207 36.7243L74.3815 37.432C64.0803 42.3864 59.8178 54.6545 64.9092 64.9172L71.5398 78.3648C76.5128 88.5096 88.8268 92.7562 99.1279 87.8018L100.667 87.094C110.968 82.1396 115.231 69.8716 110.14 59.6089L103.509 46.1612C98.5359 36.0165 86.2219 31.7699 75.9207 36.7243Z" fill="#89E219"/><path fill-rule="evenodd" clip-rule="evenodd" d="M27.7303 59.6085L26.1911 60.3163C15.8899 65.2707 11.6274 77.5388 16.7187 87.8015L23.3494 101.249C28.3223 111.394 40.6363 115.641 50.9375 110.686L52.3583 109.978C62.5411 105.024 66.8036 92.7559 61.9491 82.6111L55.4368 69.0455C50.4639 58.9008 38.1499 54.6541 27.7303 59.6085C27.8487 59.6085 27.7303 59.6085 27.7303 59.6085Z" fill="#89E219"/><path fill-rule="evenodd" clip-rule="evenodd" d="M31.4009 67.1583C23.8231 70.8151 20.7446 79.8982 24.4151 87.3298L28.4408 95.4692C32.1113 103.019 41.2284 106.086 48.8063 102.429C56.3842 98.7721 59.4627 89.689 55.7921 82.2574L51.7664 74.118C47.9775 66.6864 38.8604 63.5015 31.4009 67.1583Z" fill="white"/><path fill-rule="evenodd" clip-rule="evenodd" d="M37.4395 73.6463C33.8874 75.4157 32.4666 79.6624 34.1242 83.2012L37.558 90.161C39.334 93.6998 43.5966 95.1154 47.1487 93.4639C50.7008 91.6945 52.1216 87.4479 50.464 83.909L47.0303 76.9492C45.3726 73.2924 41.1101 71.8769 37.4395 73.6463Z" fill="#122431"/><path d="M34.2425 82.9654C36.7274 82.9654 38.7419 80.9584 38.7419 78.4828C38.7419 76.0072 36.7274 74.0002 34.2425 74.0002C31.7576 74.0002 29.7432 76.0072 29.7432 78.4828C29.7432 80.9584 31.7576 82.9654 34.2425 82.9654Z" fill="white"/><path fill-rule="evenodd" clip-rule="evenodd" d="M79.9464 43.4478C72.3686 47.1046 69.2901 56.1877 72.9606 63.6193L76.9863 71.7586C80.6569 79.3082 89.774 82.3752 97.3518 78.7184C104.93 75.0616 108.008 65.9785 104.338 58.5469L100.312 50.4075C96.6414 42.8579 87.5243 39.7909 79.9464 43.4478Z" fill="white"/><path fill-rule="evenodd" clip-rule="evenodd" d="M81.7225 52.4129C78.1704 54.1824 76.7495 58.429 78.4072 61.9678L81.8409 68.9276C83.617 72.4665 87.8795 73.882 91.4316 72.2305C94.9838 70.4611 96.4046 66.2145 94.7469 62.6756L91.3132 55.7159C89.6556 52.177 85.393 50.7615 81.7225 52.4129Z" fill="#122431"/><path d="M78.2888 62.2039C80.7737 62.2039 82.7881 60.197 82.7881 57.7213C82.7881 55.2457 80.7737 53.2388 78.2888 53.2388C75.8039 53.2388 73.7894 55.2457 73.7894 57.7213C73.7894 60.197 75.8039 62.2039 78.2888 62.2039Z" fill="white"/><path d="M29.9801 103.727L23.4679 90.5149C37.558 87.8017 49.28 88.7454 62.5412 92.9921L58.8707 101.839C57.6867 104.788 54.4897 106.322 51.4112 105.496C45.2542 103.727 39.2156 103.609 32.9402 105.142C31.8746 105.496 30.5721 104.788 29.9801 103.727Z" fill="#89E219"/><path d="M109.784 67.8662L104.93 53.5928C92.9709 61.6142 85.2747 70.4613 78.9993 82.8474L91.0765 87.9197C92.3789 88.5095 93.9182 87.9197 94.5102 86.6221C97.7071 79.7803 102.443 74.472 108.837 70.5793C109.666 70.1075 110.14 68.9278 109.784 67.8662Z" fill="#89E219"/><path fill-rule="evenodd" clip-rule="evenodd" d="M66.567 78.2467C62.6597 80.1341 61.1204 84.7347 63.0149 88.6274L63.9621 90.5148C65.8566 94.4075 70.5928 95.941 74.3817 94.0536C78.289 92.1663 79.8283 87.5657 77.9338 83.673L76.9866 81.7856C75.2105 77.8929 70.4743 76.3593 66.567 78.2467Z" fill="#F49000"/><path d="M79.9466 81.3138C76.9865 77.3031 71.1847 75.7696 66.0933 78.3647C61.4755 80.606 59.1075 86.0323 60.5283 90.8687L60.7651 91.4585L71.3031 88.3915L80.3018 82.0216L79.9466 81.3138Z" fill="#FFC200"/><path d="M66.3302 84.3806C65.975 84.3806 65.5014 84.2626 65.2646 83.9087C64.6726 83.3189 64.6726 82.3752 65.2646 81.7854C66.6854 80.3699 68.4615 79.4262 70.4743 79.1902C71.3032 79.0723 72.132 79.6621 72.132 80.6058C72.2504 81.4315 71.6584 82.2573 70.7112 82.2573C69.4087 82.3752 68.3431 82.965 67.3958 83.9087C67.0406 84.2626 66.6854 84.3806 66.3302 84.3806Z" fill="#FFDE00"/></g><defs><clipPath id="clip0"><rect width="148.005" height="183.195" fill="white" transform="translate(0.497559 0.863525)"/></clipPath></defs></svg>
